build/flags/Haiti.svg

<svg xmlns="http://www.w3.org/2000/svg" fill="none" viewBox="0 0 28 28" focusable="false"><mask id="Haiti_svg__e" width="9.333" height="8" x="9.333" y="10.667" maskUnits="userSpaceOnUse"><g filter="url(#Haiti_svg__a)"><rect width="9.333" height="8" x="9.333" y="10.667" fill="url(#Haiti_svg__b)" rx=".667"/><rect width="9.333" height="8" x="9.333" y="10.667" stroke="#969696" stroke-opacity="0" stroke-width="0" rx=".667"/></g></mask><defs><linearGradient id="Haiti_svg__d" x1="9.333" x2="9.333" y1="10.667" y2="18.667" gradientUnits="userSpaceOnUse"><stop offset="0" stop-color="#FFF"/><stop offset="1" stop-color="#EFEFEF"/></linearGradient><linearGradient id="Haiti_svg__b" x1="9.333" x2="9.333" y1="10.667" y2="18.667" gradientUnits="userSpaceOnUse"><stop offset="0" stop-color="#FFF"/><stop offset="1" stop-color="#EFEFEF"/></linearGradient><filter id="Haiti_svg__a"><feColorMatrix values="0 0 0 0 1 0 0 0 0 1 0 0 0 0 1 0 0 0 1 0"/></filter></defs><mask id="Haiti_svg__c" width="28" height="20" x="0" y="4" maskUnits="userSpaceOnUse"><g filter="url(#Haiti_svg__a)"><rect width="28" height="20" y="4" fill="#FFF" rx="3"/><rect width="28" height="20" y="4" stroke="#969696" stroke-opacity="0" stroke-width="0" rx="3"/></g></mask><path fill="none" d="M0 0H28V28H0z"/><rect width="28" height="20" y="4" fill="#FFF" rx="3"/><rect width="28" height="20" y="4" rx="3"/><g mask="url(#Haiti_svg__c)"><path fill="#112EBC" fill-rule="evenodd" d="M0 13.3333L28 13.3333L28 4L0 4L0 13.3333Z"/><path d="M28 13.3333L28 4L0 4L0 13.3333L28 13.3333Z"/><path fill="#E3264A" fill-rule="evenodd" d="M0 24L28 24L28 13.3334L0 13.3334L0 24Z"/><path d="M28 24L28 13.3334L0 13.3334L0 24L28 24Z"/><rect width="9.333" height="8" x="9.333" y="10.667" fill="url(#Haiti_svg__d)" rx=".667"/><rect width="9.333" height="8" x="9.333" y="10.667" rx=".667"/><g mask="url(#Haiti_svg__e)"><path fill="#AABCAE" fill-rule="evenodd" d="M9.33331 17.3333L11.4369 16.2815C11.8072 16.0964 12.2155 16 12.6295 16L15.3705 16C15.7845 16 16.1928 16.0964 16.563 16.2815L18.6666 17.3333L18.6666 18.6667L9.33331 18.6667L9.33331 17.3333Z"/><path fill="#366C14" fill-rule="evenodd" d="M11.4369 16.2815L9.33331 17.3333L9.33331 18.6667L18.6666 18.6667L18.6666 17.3333L16.563 16.2815C16.1928 16.0964 15.7845 16 15.3705 16L12.6295 16C12.2155 16 11.8072 16.0964 11.4369 16.2815ZM18 17.7454L16.2649 16.8778C16.1241 16.8074 15.9792 16.7546 15.8301 16.7195C15.6811 16.6843 15.5278 16.6667 15.3705 16.6667L12.6295 16.6667C12.4721 16.6667 12.3189 16.6843 12.1698 16.7195C12.0207 16.7546 11.8758 16.8074 11.7351 16.8778L9.99998 17.7454L9.99998 18L18 18L18 17.7454Z"/><path fill="#D4B872" fill-rule="evenodd" d="M14 16C15.1046 16 16 15.1046 16 14C16 12.8954 15.1046 12 14 12C12.8954 12 12 12.8954 12 14C12 15.1046 12.8954 16 14 16Z"/><path d="M16 14C16 12.8954 15.1046 12 14 12C12.8954 12 12 12.8954 12 14C12 15.1046 12.8954 16 14 16C15.1046 16 16 15.1046 16 14Z"/><path fill="#C28321" fill-rule="evenodd" d="M10.6666 15.3871C10.6666 14.8281 11.3132 14.5173 11.7498 14.8665L13.5835 16.3335C13.827 16.5283 14.1729 16.5283 14.4164 16.3335L16.2502 14.8665C16.6867 14.5173 17.3333 14.8281 17.3333 15.3871L17.3333 16.6667C17.3333 17.0348 17.0348 17.3333 16.6666 17.3333L11.3333 17.3333C10.9651 17.3333 10.6666 17.0348 10.6666 16.6667L10.6666 15.3871Z"/><path fill="#0D3488" fill-rule="evenodd" d="M11.7498 14.8665C11.3132 14.5173 10.6666 14.8281 10.6666 15.3871L10.6666 16.6667C10.6666 17.0348 10.9651 17.3333 11.3333 17.3333L16.6666 17.3333C17.0348 17.3333 17.3333 17.0348 17.3333 16.6667L17.3333 15.3871C17.3333 14.8281 16.6867 14.5173 16.2502 14.8665L14.4164 16.3335C14.1729 16.5283 13.827 16.5283 13.5835 16.3335L11.7498 14.8665ZM12.9328 16.6667L11.3333 15.3871L11.3333 16.6667L12.9328 16.6667ZM15.0671 16.6667L16.6666 16.6667L16.6666 15.3871L15.0671 16.6667Z"/><path fill="#216C30" fill-rule="evenodd" d="M12.569 12.569C12.359 12.359 12.5078 12 12.8047 12L15.1953 12C15.4922 12 15.641 12.359 15.431 12.569L14.2357 13.7643C14.1055 13.8945 13.8945 13.8945 13.7643 13.7643L12.569 12.569Z"/><path d="M15.1953 12C15.4922 12 15.641 12.359 15.431 12.569L14.2357 13.7643C14.1055 13.8945 13.8945 13.8945 13.7643 13.7643L12.569 12.569C12.359 12.359 12.5078 12 12.8047 12L15.1953 12Z"/></g></g></svg>

<svg xmlns="http://www.w3.org/2000/svg" fill="none" viewBox="0 0 28 28" focusable="false"><defs><linearGradient id="Haiti_svg__b" x1="9.333" x2="9.333" y1="10.667" y2="18.667" gradientUnits="userSpaceOnUse"><stop stop-color="#FFF"/><stop offset="1" stop-color="#F0F0F0"/></linearGradient><linearGradient id="Haiti_svg__c" x1="9.333" x2="9.333" y1="10.667" y2="18.667" gradientUnits="userSpaceOnUse"><stop stop-color="#FFF"/><stop offset="1" stop-color="#F0F0F0"/></linearGradient></defs><path fill="none" d="M0 0h28v28H0z"/><rect width="28" height="20" y="4" fill="#FFF" rx="3"/><rect width="28" height="20" y="4" rx="3"/><mask id="Haiti_svg__a" width="28" height="20" x="0" y="4" mask-type="alpha" maskUnits="userSpaceOnUse"><rect width="28" height="20" y="4" fill="#FFF" rx="3"/><rect width="28" height="20" y="4" stroke="#979797" stroke-opacity="0" stroke-width="0" rx="3"/></mask><g mask="url(#Haiti_svg__a)"><path fill="#112EBC" fill-rule="evenodd" d="M0 13.33h28V4H0z"/><path d="M28 13.33V4H0v9.33z"/></g><g mask="url(#Haiti_svg__a)"><path fill="#E3264A" fill-rule="evenodd" d="M0 24h28V13.33H0z"/><path d="M28 24V13.33H0V24z"/></g><g mask="url(#Haiti_svg__a)"><rect width="9.333" height="8" x="9.333" y="10.667" fill="url(#Haiti_svg__b)" rx=".667"/><rect width="9.333" height="8" x="9.333" y="10.667" rx=".667"/><mask id="Haiti_svg__d" width="9.333" height="8" x="9.333" y="10.667" mask-type="alpha" maskUnits="userSpaceOnUse"><rect width="9.333" height="8" x="9.333" y="10.667" fill="url(#Haiti_svg__c)" rx=".667"/><rect width="9.333" height="8" x="9.333" y="10.667" stroke="#979797" stroke-opacity="0" stroke-width="0" rx=".667"/></mask><g fill-rule="evenodd" mask="url(#Haiti_svg__d)"><path fill="#AABCAE" d="m9.33 17.33 2.1-1.05c.37-.19.78-.28 1.19-.28h2.75c.41 0 .82.09 1.19.28l2.1 1.05v1.33H9.33z"/><path fill="#366C14" d="m9.33 17.33 2.1-1.05c.37-.19.78-.28 1.19-.28h2.75c.41 0 .82.09 1.19.28l2.1 1.05v1.33H9.33zm.67.41V18h8v-.26l-1.74-.87q-.21-.1-.43-.16-.23-.05-.46-.05h-2.75q-.23 0-.46.05-.22.06-.43.16z"/></g><g mask="url(#Haiti_svg__d)"><path fill="#D4B872" fill-rule="evenodd" d="M14 16a2 2 0 1 0 0-4c-1.11 0-2 .89-2 2a2 2 0 0 0 2 2"/><path d="M16 14a2 2 0 0 0-2-2c-1.11 0-2 .89-2 2a2 2 0 1 0 4 0"/></g><g fill-rule="evenodd" mask="url(#Haiti_svg__d)"><path fill="#C28321" d="M10.66 15.38c0-.56.65-.87 1.08-.52l1.84 1.47c.24.19.59.19.83 0l1.84-1.47c.43-.35 1.08-.04 1.08.52v1.28c0 .37-.3.67-.67.67h-5.33a.67.67 0 0 1-.67-.67z"/><path fill="#0D3488" d="M10.66 15.38c0-.56.65-.87 1.08-.52l1.84 1.47c.24.19.59.19.83 0l1.84-1.47c.43-.35 1.08-.04 1.08.52v1.28c0 .37-.3.67-.67.67h-5.33a.67.67 0 0 1-.67-.67zm2.27 1.28-1.6-1.28v1.28zm2.13 0h1.6v-1.28z"/></g><g mask="url(#Haiti_svg__d)"><path fill="#216C30" fill-rule="evenodd" d="M12.56 12.56a.328.328 0 0 1 .24-.56h2.39c.3 0 .45.35.24.56l-1.2 1.2c-.13.13-.34.13-.47 0z"/><path d="M15.19 12c.3 0 .45.35.24.56l-1.2 1.2c-.13.13-.34.13-.47 0l-1.2-1.2a.328.328 0 0 1 .24-.56z"/></g></g></svg>
